Newaita/actions/22/draw-spiral.svg

<svg height="22" viewBox="0 0 22 22" width="22" xmlns="http://www.w3.org/2000/svg"><path d="m10.808594 3.09375c-2.871094.023438-5.644532 1.679688-6.773438 4.511719-1.339844 3.371093.207032 7.410156 3.671875 8.757812 3.054688 1.1875 6.703125-.226562 7.890625-3.378906 1.03125-2.734375-.246094-5.992187-3.089844-7.023437-2.414062-.875-5.285156.273437-6.152343 2.804687-.714844 2.09375.300781 4.582031 2.527343 5.28125 1.777344.558594 3.882813-.332031 4.40625-2.265625.394532-1.457031-.378906-3.199219-2.035156-3.519531-.570312-.109375-1.144531-.007813-1.644531.292969-.503906.300781-.941406.886718-.964844 1.59375-.015625.324218.148438.636718.421875.808593.277344.175781.628906.1875.914063.03125.289062-.15625.46875-.453125.476562-.78125 0-.054687-.007812-.046875.082031-.101562.09375-.054688.273438-.085938.371094-.066407.496094.097657.773438.738282.628906 1.273438-.226562.847656-1.253906 1.277344-2.113281 1.007812-1.183593-.371093-1.761719-1.785156-1.355469-2.96875.519532-1.511718 2.320313-2.230468 3.820313-1.6875 1.839844.667969 2.703125 2.859376 2.015625 4.679688-.816406 2.164062-3.398438 3.164062-5.542969 2.332031-2.484375-.964843-3.625-3.9375-2.644531-6.398437 1.117188-2.808594 4.480469-4.089844 7.257812-2.960938 3.128907 1.269532 4.550782 5.023438 3.273438 8.121094-.972656 2.367188-3.335938 3.988281-5.898438 4.121094-.328124.011718-.621093.199218-.769531.488281-.148437.292969-.132812.640625.046875.914063.179688.269531.492188.425781.816406.40625 3.257813-.171876 6.226563-2.195313 7.480469-5.238282 1.648438-4.011718-.171875-8.832031-4.265625-10.492187-.925781-.371094-1.890625-.546875-2.851562-.542969zm0 0" fill="#424242" fill-rule="evenodd"/></svg>

<?xml version="1.0" encoding="UTF-8"?>
<svg xmlns="http://www.w3.org/2000/svg" xmlns:xlink="http://www.w3.org/1999/xlink" width="22px" height="22px" viewBox="0 0 22 22" version="1.1">
<g id="surface1">
<path style=" stroke:none;fill-rule:evenodd;fill:rgb(25.882354%,25.882354%,25.882354%);fill-opacity:1;" d="M 10.808594 3.09375 C 7.9375 3.117188 5.164062 4.773438 4.035156 7.605469 C 2.695312 10.976562 4.242188 15.015625 7.707031 16.363281 C 10.761719 17.550781 14.410156 16.136719 15.597656 12.984375 C 16.628906 10.25 15.351562 6.992188 12.507812 5.960938 C 10.09375 5.085938 7.222656 6.234375 6.355469 8.765625 C 5.640625 10.859375 6.65625 13.347656 8.882812 14.046875 C 10.660156 14.605469 12.765625 13.714844 13.289062 11.78125 C 13.683594 10.324219 12.910156 8.582031 11.253906 8.261719 C 10.683594 8.152344 10.109375 8.253906 9.609375 8.554688 C 9.105469 8.855469 8.667969 9.441406 8.644531 10.148438 C 8.628906 10.472656 8.792969 10.785156 9.066406 10.957031 C 9.34375 11.132812 9.695312 11.144531 9.980469 10.988281 C 10.269531 10.832031 10.449219 10.535156 10.457031 10.207031 C 10.457031 10.152344 10.449219 10.160156 10.539062 10.105469 C 10.632812 10.050781 10.8125 10.019531 10.910156 10.039062 C 11.40625 10.136719 11.683594 10.777344 11.539062 11.3125 C 11.3125 12.160156 10.285156 12.589844 9.425781 12.320312 C 8.242188 11.949219 7.664062 10.535156 8.070312 9.351562 C 8.589844 7.839844 10.390625 7.121094 11.890625 7.664062 C 13.730469 8.332031 14.59375 10.523438 13.90625 12.34375 C 13.089844 14.507812 10.507812 15.507812 8.363281 14.675781 C 5.878906 13.710938 4.738281 10.738281 5.71875 8.277344 C 6.835938 5.46875 10.199219 4.1875 12.976562 5.316406 C 16.105469 6.585938 17.527344 10.339844 16.25 13.4375 C 15.277344 15.804688 12.914062 17.425781 10.351562 17.558594 C 10.023438 17.570312 9.730469 17.757812 9.582031 18.046875 C 9.433594 18.339844 9.449219 18.6875 9.628906 18.960938 C 9.808594 19.230469 10.121094 19.386719 10.445312 19.367188 C 13.703125 19.195312 16.671875 17.171875 17.925781 14.128906 C 19.574219 10.117188 17.753906 5.296875 13.660156 3.636719 C 12.734375 3.265625 11.769531 3.089844 10.808594 3.09375 Z M 10.808594 3.09375 "/>
</g>
</svg>
